src/icons_unused/hds/ui/bell-crossed.svg

<svg xmlns="http://www.w3.org/2000/svg" width="24" height="24" viewBox="0 0 24 24">
  <g fill="none" fill-rule="evenodd">
    <rect width="24" height="24"/>
    <path fill="currentColor" d="M17.9998932,9.534 L18,11 L18.0018998,11.2009041 C18.0185827,12.0272076 18.1491671,12.3644132 18.5514377,12.8551189 L18.8930546,13.2598351 C19.6250507,14.1656907 19.9597186,15.0653552 19.9965584,16.6872527 L20,17 L20,19 L15,19 C15,20.6568542 13.6568542,22 12,22 C10.4023191,22 9.09633912,20.75108 9.00509269,19.1762728 L9,19 L8.53389322,19 L10.5338932,17 L18,17 L17.9979804,16.7558191 C17.9833667,15.9139527 17.8879896,15.4218583 17.6646404,15.0002122 L12.5338932,15 L14.5338932,13 L16.3136066,13.0010331 C16.1432153,12.5806277 16.0474658,12.1120199 16.0138732,11.5218893 L17.9998932,9.534 Z M19.7928932,2.79289322 L21.2071068,4.20710678 L4.70710678,20.7071068 L3.29289322,19.2928932 L19.7928932,2.79289322 Z M13,19 L11,19 C11,19.5522847 11.4477153,20 12,20 C12.5128358,20 12.9355072,19.6139598 12.9932723,19.1166211 L13,19 Z M12,2 C13.7756148,2 15.3710833,2.7712977 16.4696435,3.997131 L15.0517332,5.41396305 C14.3180115,4.54897265 13.2231155,4 12,4 C9.85780461,4 8.10892112,5.68396847 8.00489531,7.80035966 L8,8 L8,11 C8,11.67654 7.93895839,12.2054802 7.80363124,12.6645987 L4.01105333,16.4530297 C4.07417286,14.9768175 4.41096179,14.1211247 5.10694542,13.2598351 L5.34224316,12.981365 C5.82827783,12.4172177 5.98002707,12.0960662 5.99810015,11.2009041 L6,8 C6,4.6862915 8.6862915,2 12,2 Z"/>
  </g>
</svg>

<svg viewBox="0 0 24 24" role="img" xmlns="http://www.w3.org/2000/svg"><g fill="none" fill-rule="evenodd"><path d="M0 0h24v24H0z"/><path d="M18 9.534V11l.002.2c.017.827.147 1.164.55 1.655l.341.405c.732.906 1.067 1.805 1.104 3.427L20 17v2h-5a3 3 0 01-5.995.176L9 19h-.466l2-2H18l-.002-.244c-.015-.842-.11-1.334-.333-1.756h-5.131l2-2 1.78.001c-.17-.42-.267-.889-.3-1.48L18 9.535zm1.793-6.741l1.414 1.414-16.5 16.5-1.414-1.414 16.5-16.5zM13 19h-2a1 1 0 001.993.117L13 19zM12 2c1.776 0 3.371.771 4.47 1.997l-1.418 1.417A4 4 0 008.005 7.8L8 8v3c0 .677-.061 1.205-.196 1.665L4.01 16.453c.063-1.476.4-2.332 1.096-3.193l.235-.279c.486-.564.638-.885.656-1.78L6 8a6 6 0 016-6z" fill="currentColor"/></g></svg>
